Simply-Black-Circles/scalable/apps/xhydra.svg

<svg xmlns="http://www.w3.org/2000/svg" width="48" height="48" viewBox="0 0 12.7 12.7"><defs><linearGradient id="a" x1="164.79" x2="189.7" y1="60.1" y2="307.59" gradientUnits="userSpaceOnUse"><stop stop-color="#0ba05d" offset="0"/><stop stop-color="#12715f" offset="1"/></linearGradient></defs><path d="M6.34.07a6.29 6.29 0 0 0-6.29 6.3 6.29 6.29 0 0 0 6.3 6.28 6.29 6.29 0 0 0 6.28-6.29A6.29 6.29 0 0 0 6.34.07zM6.32 1l.01.01a5.4 5.4 0 0 1 5.4 5.4 5.4 5.4 0 0 1-5.4 5.41 5.4 5.4 0 0 1-5.41-5.4A5.4 5.4 0 0 1 6.32 1z" fill="#1a1a1a"/><path d="M5.13 2.06c-.13.01-.19.04-.24.1-.05.07-.1.09-.3.1-.15.02-.26.05-.3.08a.57.57 0 0 0-.15.36c0 .07 0 .08.12.06.08-.01.19 0 .25.02.1.03.11.05.08.08-.02.03-.1.02-.18.02-.17 0-.18.05-.07.18l.08.1.13-.08c.14-.08.25-.06.35 0 .04.02.22.05.4.06.3.02.22.02.3.1.04.06.1.14.1.2 0 .22-.15.6-.6 1.13-.22.26-.26.75-.26.88 0 .04-.01.08-.03.1-.03.01-.05-.11-.08-.51-.04-.4-.11-.63-.28-.8a.65.65 0 0 0-.3-.2C4 4 3.99 3.97 4.13 3.91c.05-.02.1-.05.1-.07 0-.04-.15-.07-.25-.05-.1.02-.1 0-.01-.1.17-.18-.13-.14-.44.07-.27.18-.44.37-.47.51-.02.09-.07.16-.19.27-.21.2-.26.3-.23.49.04.27.07.3.2.14.07-.1.26-.2.3-.16.03.04-.06.15-.16.21-.12.08-.12.13 0 .17.13.05.15.03.22-.1.08-.16.17-.25.3-.3.07-.01.19-.1.27-.17a.72.72 0 0 1 .2-.14c.06 0 .19.15.22.28.02.07.05.35.07.61.06.84.14.95.45 1.61.1.21.17.4.17.43 0 .04-.25.05-.44.07-.46.04-.65.2-.68.55-.01.13 0 .2.04.29.1.17.15.17.12-.01-.02-.15.04-.25.08-.13.03.08.14.2.2.2.05 0 .05 0 0-.1-.03-.1 0-.11.08-.04.09.06.12.03.1-.1-.04-.23.31-.42.73-.3.2.07.25.07.34.04.17-.06.41-.05.52.05.12.1.03.34-.05.45-.08.11-.2.16-.52.2-.15.02-.32.05-.36.08a.37.37 0 0 0-.15.28c0 .09.04.08.12-.01.04-.05.1-.09.14-.09.08 0 .08.02 0 .13-.06.07-.1.27-.05.27.01 0 .07-.05.13-.12.06-.06.14-.11.18-.11.08 0 .08.02.02.11-.05.07-.07.28-.03.28.02 0 .06-.05.1-.1.06-.1.13-.15.4-.26.05-.03.27-.23.48-.45.37-.4.37-.4.36-.54l-.01-.14.38-.04c.33-.12.51-.13.7-.03.27.14.51.37.48.59-.03.16-.12.47-.34.49-.53-.01-1.28.33-1.2.83.07.33.5.56.94.65.14.04.32.05.55.04.58-.03.95-.06 1.25-.37.12-.12.26-.4.31-.53l.29.15v-.75l-.75.33.4.23c-.05.03-.11.13-.18.2-.3.31-.51.31-.89.36-.3.04-.65 0-.86-.1-.18-.07-.31-.24-.31-.36s.14-.22.3-.23c.46-.01.54-.06.54-.06.33-.1.64-.66.64-1.02 0-.09.01-.2.03-.25.03-.07.01-.12-.08-.32-.08-.16-.1-.18-.1-.24.02-.06 0-.11-.17-.27-.17-.17-.18-.26-.15-.31a.32.32 0 0 0 .04-.08.9.9 0 0 0-.19-.12l-.27-.16c-.07-.05-.07-.07-.03-.12.02-.03.03-.06.02-.07a1.52 1.52 0 0 0-.27-.07c-.32-.06-.37-.08-.38-.2 0-.04-.02-.08-.03-.08a19 19 0 0 0-.35.06c-.35.06-.43.06-.43-.05 0-.08 0-.08-.22.03-.36.2-.65.08-.56-.22l.14-.28c.2-.3.6-.4 1.34-.43.4-.02.59-.04.7-.1.2-.08.63-.38.7-.53.04-.06.08-.12.1-.12.07 0 .15-.14.15-.24 0-.15.07-.14.11.01.04.16.1.08.1-.11 0-.16.02-.18.1-.07.08.11.1.04.06-.19a3.45 3.45 0 0 0-.45-.88c-.04-.04-.33-.09-.38-.1-.07-.02-.16-.07-.26-.24a.87.87 0 0 0-.23-.27c-.08-.04-.1-.04-.23.01-.16.06-.17.09-.1.15s.18.3.18.4c0 .07 0 .07-.07 0-.03-.03-.14-.1-.17-.17-.04-.11-.05-.11-.1-.05a.25.25 0 0 0 .06.34c.11.08.2.25.25.43 0 .06.05.16.08.22.13.2.1.7-.1.8a2.6 2.6 0 0 1-.62.08c-.78.05-1.14.15-1.51.52-.18.17-.2.18-.17.09.03-.14.05-.34.37-.76.42-.54.47-.67.47-1.06 0-.34-.15-.72-.5-1-.08-.05-.13-.1-.12-.12 0-.02.08-.03.15-.03.15 0 .16-.05 0-.14a1.87 1.87 0 0 0-.75-.12z" fill="#0ba05d" opacity=".75"/></svg>

<?xml version="1.0" encoding="UTF-8" standalone="no"?>
<svg
   xmlns:dc="http://purl.org/dc/elements/1.1/"
   xmlns:cc="http://creativecommons.org/ns#"
   xmlns:rdf="http://www.w3.org/1999/02/22-rdf-syntax-ns#"
   xmlns:svg="http://www.w3.org/2000/svg"
   xmlns="http://www.w3.org/2000/svg"
   xmlns:sodipodi="http://sodipodi.sourceforge.net/DTD/sodipodi-0.dtd"
   xmlns:inkscape="http://www.inkscape.org/namespaces/inkscape"
   width="48"
   height="48"
   viewBox="0 0 12.7 12.7"
   version="1.1"
   id="svg13"
   sodipodi:docname="xhydra.svg"
   inkscape:version="0.92.4 (5da689c313, 2019-01-14)">
  <metadata
     id="metadata17">
    <rdf:RDF>
      <cc:Work
         rdf:about="">
        <dc:format>image/svg+xml</dc:format>
        <dc:type
           rdf:resource="http://purl.org/dc/dcmitype/StillImage" />
        <dc:title></dc:title>
      </cc:Work>
    </rdf:RDF>
  </metadata>
  <sodipodi:namedview
     pagecolor="#ffffff"
     bordercolor="#666666"
     borderopacity="1"
     objecttolerance="10"
     gridtolerance="10"
     guidetolerance="10"
     inkscape:pageopacity="0"
     inkscape:pageshadow="2"
     inkscape:window-width="1087"
     inkscape:window-height="480"
     id="namedview15"
     showgrid="false"
     inkscape:zoom="4.9166667"
     inkscape:cx="2.1355932"
     inkscape:cy="24"
     inkscape:window-x="0"
     inkscape:window-y="25"
     inkscape:window-maximized="0"
     inkscape:current-layer="svg13" />
  <defs
     id="defs7">
    <linearGradient
       id="a"
       x1="164.79"
       x2="189.7"
       y1="60.1"
       y2="307.59"
       gradientUnits="userSpaceOnUse">
      <stop
         stop-color="#0ba05d"
         offset="0"
         id="stop2" />
      <stop
         stop-color="#12715f"
         offset="1"
         id="stop4" />
    </linearGradient>
  </defs>
  <path
     d="M 6.34,0.07 A 6.29,6.29 0 0 0 0.05,6.37 6.29,6.29 0 0 0 6.35,12.65 6.29,6.29 0 0 0 12.63,6.36 6.29,6.29 0 0 0 6.34,0.07 Z M 6.32,1 6.33,1.01 a 5.4,5.4 0 0 1 5.4,5.4 5.4,5.4 0 0 1 -5.4,5.41 A 5.4,5.4 0 0 1 0.92,6.42 5.4,5.4 0 0 1 6.32,1 Z"
     id="path9"
     inkscape:connector-curvature="0"
     style="fill:#1a1a1a" />
  <path
     d="M 5.13,2.06 C 5,2.07 4.94,2.1 4.89,2.16 4.84,2.23 4.79,2.25 4.59,2.26 4.44,2.28 4.33,2.31 4.29,2.34 A 0.57,0.57 0 0 0 4.14,2.7 c 0,0.07 0,0.08 0.12,0.06 0.08,-0.01 0.19,0 0.25,0.02 0.1,0.03 0.11,0.05 0.08,0.08 C 4.57,2.89 4.49,2.88 4.41,2.88 4.24,2.88 4.23,2.93 4.34,3.06 L 4.42,3.16 4.55,3.08 C 4.69,3 4.8,3.02 4.9,3.08 4.94,3.1 5.12,3.13 5.3,3.14 5.6,3.16 5.52,3.16 5.6,3.24 5.64,3.3 5.7,3.38 5.7,3.44 5.7,3.66 5.55,4.04 5.1,4.57 4.88,4.83 4.84,5.32 4.84,5.45 4.84,5.49 4.83,5.53 4.81,5.55 4.78,5.56 4.76,5.44 4.73,5.04 4.69,4.64 4.62,4.41 4.45,4.24 A 0.65,0.65 0 0 0 4.15,4.04 C 4,4 3.99,3.97 4.13,3.91 4.18,3.89 4.23,3.86 4.23,3.84 4.23,3.8 4.08,3.77 3.98,3.79 3.88,3.81 3.88,3.79 3.97,3.69 4.14,3.51 3.84,3.55 3.53,3.76 3.26,3.94 3.09,4.13 3.06,4.27 3.04,4.36 2.99,4.43 2.87,4.54 2.66,4.74 2.61,4.84 2.64,5.03 2.68,5.3 2.71,5.33 2.84,5.17 2.91,5.07 3.1,4.97 3.14,5.01 3.17,5.05 3.08,5.16 2.98,5.22 2.86,5.3 2.86,5.35 2.98,5.39 3.11,5.44 3.13,5.42 3.2,5.29 3.28,5.13 3.37,5.04 3.5,4.99 3.57,4.98 3.69,4.89 3.77,4.82 a 0.72,0.72 0 0 1 0.2,-0.14 c 0.06,0 0.19,0.15 0.22,0.28 0.02,0.07 0.05,0.35 0.07,0.61 0.06,0.84 0.14,0.95 0.45,1.61 0.1,0.21 0.17,0.4 0.17,0.43 0,0.04 -0.25,0.05 -0.44,0.07 C 3.98,7.72 3.79,7.88 3.76,8.23 3.75,8.36 3.76,8.43 3.8,8.52 3.9,8.69 3.95,8.69 3.92,8.51 3.9,8.36 3.96,8.26 4,8.38 c 0.03,0.08 0.14,0.2 0.2,0.2 0.05,0 0.05,0 0,-0.1 C 4.17,8.38 4.2,8.37 4.28,8.44 4.37,8.5 4.4,8.47 4.38,8.34 4.34,8.11 4.69,7.92 5.11,8.04 5.31,8.11 5.36,8.11 5.45,8.08 5.62,8.02 5.86,8.03 5.97,8.13 6.09,8.23 6,8.47 5.92,8.58 5.84,8.69 5.72,8.74 5.4,8.78 5.25,8.8 5.08,8.83 5.04,8.86 A 0.37,0.37 0 0 0 4.89,9.14 c 0,0.09 0.04,0.08 0.12,-0.01 0.04,-0.05 0.1,-0.09 0.14,-0.09 0.08,0 0.08,0.02 0,0.13 C 5.09,9.24 5.05,9.44 5.1,9.44 5.11,9.44 5.17,9.39 5.23,9.32 5.29,9.26 5.37,9.21 5.41,9.21 5.49,9.21 5.49,9.23 5.43,9.32 5.38,9.39 5.36,9.6 5.4,9.6 5.42,9.6 5.46,9.55 5.5,9.5 5.56,9.4 5.63,9.35 5.9,9.24 5.95,9.21 6.17,9.01 6.38,8.79 6.75,8.39 6.75,8.39 6.74,8.25 L 6.73,8.11 7.11,8.07 C 7.44,7.95 7.62,7.94 7.81,8.04 8.08,8.18 8.32,8.41 8.29,8.63 8.26,8.79 8.17,9.1 7.95,9.12 7.42,9.11 6.67,9.45 6.75,9.95 c 0.07,0.33 0.5,0.56 0.94,0.65 0.14,0.04 0.32,0.05 0.55,0.04 0.58,-0.03 0.95,-0.06 1.25,-0.37 0.12,-0.12 0.26,-0.4 0.31,-0.53 l 0.29,0.15 V 9.14 L 9.34,9.47 9.74,9.7 C 9.69,9.73 9.63,9.83 9.56,9.9 9.26,10.21 9.05,10.21 8.67,10.26 8.37,10.3 8.02,10.26 7.81,10.16 7.63,10.09 7.5,9.92 7.5,9.8 7.5,9.68 7.64,9.58 7.8,9.57 8.26,9.56 8.34,9.51 8.34,9.51 8.67,9.41 8.98,8.85 8.98,8.49 8.98,8.4 8.99,8.29 9.01,8.24 9.04,8.17 9.02,8.12 8.93,7.92 8.85,7.76 8.83,7.74 8.83,7.68 8.85,7.62 8.83,7.57 8.66,7.41 8.49,7.24 8.48,7.15 8.51,7.1 A 0.32,0.32 0 0 0 8.55,7.02 0.9,0.9 0 0 0 8.36,6.9 L 8.09,6.74 C 8.02,6.69 8.02,6.67 8.06,6.62 8.08,6.59 8.09,6.56 8.08,6.55 A 1.52,1.52 0 0 0 7.81,6.48 C 7.49,6.42 7.44,6.4 7.43,6.28 7.43,6.24 7.41,6.2 7.4,6.2 A 19,19 0 0 0 7.05,6.26 C 6.7,6.32 6.62,6.32 6.62,6.21 6.62,6.13 6.62,6.13 6.4,6.24 6.04,6.44 5.75,6.32 5.84,6.02 L 5.98,5.74 C 6.18,5.44 6.58,5.34 7.32,5.31 7.72,5.29 7.91,5.27 8.02,5.21 8.22,5.13 8.65,4.83 8.72,4.68 8.76,4.62 8.8,4.56 8.82,4.56 c 0.07,0 0.15,-0.14 0.15,-0.24 0,-0.15 0.07,-0.14 0.11,0.01 0.04,0.16 0.1,0.08 0.1,-0.11 0,-0.16 0.02,-0.18 0.1,-0.07 0.08,0.11 0.1,0.04 0.06,-0.19 A 3.45,3.45 0 0 0 8.89,3.08 C 8.85,3.04 8.56,2.99 8.51,2.98 8.44,2.96 8.35,2.91 8.25,2.74 A 0.87,0.87 0 0 0 8.02,2.47 C 7.94,2.43 7.92,2.43 7.79,2.48 7.63,2.54 7.62,2.57 7.69,2.63 c 0.07,0.06 0.18,0.3 0.18,0.4 0,0.07 0,0.07 -0.07,0 C 7.77,3 7.66,2.93 7.63,2.86 7.59,2.75 7.58,2.75 7.53,2.81 A 0.25,0.25 0 0 0 7.59,3.15 C 7.7,3.23 7.79,3.4 7.84,3.58 7.84,3.64 7.89,3.74 7.92,3.8 8.05,4 8.02,4.5 7.82,4.6 A 2.6,2.6 0 0 1 7.2,4.68 C 6.42,4.73 6.06,4.83 5.69,5.2 5.51,5.37 5.49,5.38 5.52,5.29 5.55,5.15 5.57,4.95 5.89,4.53 6.31,3.99 6.36,3.86 6.36,3.47 6.36,3.13 6.21,2.75 5.86,2.47 5.78,2.42 5.73,2.37 5.74,2.35 c 0,-0.02 0.08,-0.03 0.15,-0.03 0.15,0 0.16,-0.05 0,-0.14 A 1.87,1.87 0 0 0 5.14,2.06 Z"
     id="path11"
     inkscape:connector-curvature="0"
     style="opacity:0.75;fill:#0ba05d" />
</svg>
